X:1
T:Title
%%score { ( 1 3 ) | ( 2 4 ) }
L:1/8
Q:1/4=100
M:4/4
K:C
V:1 treble nm="Grand Piano"
V:3 treble 
V:2 bass 
V:4 bass 
V:1
 E2 E2 E<E- E2 | F2 F2 E4 | [G,B,D]2 [B,DG]2 [B,DG]2 [G,DF]2 | [G,CE]2 [FA]2 [EG]4 | %4
w: Asa~Hull * * * *||||
 [Ec]2 [Ec]2 [Ec]2 [EG]2 | [FA]2 [EG]2 [EG]4 | G2 G2 G2 G2 | G2 [B,DG]2 [CEG]4 | c2 c2 c<c c2 | %9
w: |||||
 c2 c2 c4 | E2 E2 E<E E2 | [B,DG]2 [DFG]2 [EG]4 | c2 c2 c<c c2 | c2 c2 c4 | %14
w: |||||
 [EG]2 [EG]2 [Ec]2 [EG]>[G,CE] | G2 z2[K:bass] z4 |] %16
w: ||
V:2
 [C,G,C]2 [C,G,C]2 [C,G,C]<[C,G,C]- [C,G,C]2 | [C,A,C]2 [C,A,C]2 [C,G,C]4 | G,,2 G,,2 G,,2 G,,2 | %3
 C,2 [C,C]2 [C,C]4 | [C,G,]2 [C,G,]2 [C,G,]2 [C,C]2 | [C,C]2 [C,C]2 [C,C]4 | %6
 [G,B,D]2 [G,CE]2 [G,DF]2 [G,DF]2 | [G,CE]2[K:bass] G,,2 C,4 | [CEG]2 [CEG]2 [CEG]<[CEG] [CEG]2 | %9
 [CFA]2 [CFA]2 [CEG]4 | [C,G,C]2 [C,G,C]2 [C,G,C]<[C,G,C] [C,G,C]2 | [G,,G,]2 [G,,G,]2 [C,C]4 | %12
 [CEG]2 [CEG]2 [CEG]<[CEG] [CEG]2 | [CFA]2 [CFA]2 [CEG]4 | [C,C]2 [C,C]2 [C,C]2 [C,C]>C, | %15
 z2 D>G,, C,4 |] %16
V:3
 x8 | x8 | x8 | x8 | x8 | x8 | x8 | x8 | x8 | x8 | x8 | x8 | x8 | x8 | x8 | %15
 [G,B,]3- [G,B,]/[K:bass][G,B,E]/ [E,C]4 |] %16
V:4
 x8 | x8 | x8 | x8 | x8 | x8 | x8 | x2[K:bass] x6 | x8 | x8 | x8 | x8 | x8 | x8 | x8 | G,,4 z4 |] %16

